app/img/second-menu/icon3.svg

<?xml version="1.0" encoding="UTF-8" standalone="no"?>
<svg width="24px" height="24px" viewBox="0 0 24 24" version="1.1" xmlns="http://www.w3.org/2000/svg" xmlns:xlink="http://www.w3.org/1999/xlink">
    <!-- Generator: sketchtool 39.1 (31720) - http://www.bohemiancoding.com/sketch -->
    <title>9036C8C5-2814-4897-B4B2-F9BF7FDA6C59</title>
    <desc>Created with sketchtool.</desc>
    <defs></defs>
    <g id="CUT" stroke="none" stroke-width="1" fill="none" fill-rule="evenodd">
        <g id="Icons" transform="translate(-120.000000, -672.000000)" fill="#000000">
            <g id="tehnika_dlya_doma" transform="translate(122.000000, 672.000000)">
                <g id="Group">
                    <path d="M4.77846154,14.508 C4.77846154,17.3505 7.15076923,19.6635 10.0661538,19.6635 C12.9815385,19.6635 15.3538462,17.3505 15.3538462,14.508 C15.3538462,11.6655 12.9815385,9.3525 10.0661538,9.3525 C7.15076923,9.3525 4.77846154,11.6655 4.77846154,14.508 L4.77846154,14.508 Z M10.0661538,10.79625 C12.1653846,10.79625 13.8738462,12.462 13.8738462,14.50875 C13.8738462,16.5555 12.1653846,18.22125 10.0661538,18.22125 C7.96692308,18.22125 6.25846154,16.5555 6.25846154,14.50875 C6.25846154,12.462 7.96692308,10.79625 10.0661538,10.79625 L10.0661538,10.79625 Z" id="Shape"></path>
                    <path d="M0,0 L0,24 L20,24 L20,0 L0,0 L0,0 Z M18.4615385,22.5 L1.53846154,22.5 L1.53846154,1.5 L18.4615385,1.5 L18.4615385,22.5 L18.4615385,22.5 Z" id="Shape"></path>
                    <ellipse id="Oval" cx="15.9276923" cy="3.91575" rx="0.965384615" ry="0.94125"></ellipse>
                    <ellipse id="Oval" cx="12.9615385" cy="3.91575" rx="0.965384615" ry="0.94125"></ellipse>
                    <rect id="Rectangle-path" x="3.07692308" y="3" width="3.07692308" height="1.5"></rect>
                </g>
            </g>
        </g>
    </g>
</svg>

<svg width="24" height="24" xmlns="http://www.w3.org/2000/svg"><g transform="translate(2)" fill-rule="evenodd"><path d="M4.778 14.508c0 2.843 2.373 5.155 5.288 5.155 2.916 0 5.288-2.313 5.288-5.155s-2.372-5.155-5.288-5.155c-2.915 0-5.288 2.313-5.288 5.155zm5.288-3.712c2.1 0 3.808 1.666 3.808 3.713 0 2.046-1.709 3.712-3.808 3.712-2.1 0-3.808-1.666-3.808-3.712 0-2.047 1.709-3.713 3.808-3.713z"/><path d="M0 0v24h20V0H0zm18.462 22.5H1.538v-21h16.924v21z"/><ellipse cx="15.928" cy="3.916" rx=".965" ry=".941"/><ellipse cx="12.962" cy="3.916" rx=".965" ry=".941"/><path d="M3.077 3h3.077v1.5H3.077z"/></g></svg>
